static/img/kroki/b0728b1811f85b66317b75c2d2403bca.svg

<?xml version="1.0" encoding="us-ascii" standalone="no"?><svg xmlns="http://www.w3.org/2000/svg" xmlns:xlink="http://www.w3.org/1999/xlink" contentStyleType="text/css" height="352px" preserveAspectRatio="none" style="width:976px;height:352px;" version="1.1" viewBox="0 0 976 352" width="976px" zoomAndPan="magnify"><defs/><g><!--class gcp_address--><g id="elem_gcp_address"><rect codeLine="23" fill="#3D176E" height="39.7891" id="gcp_address" rx="2.5" ry="2.5" style="stroke:#000D19;stroke-width:0.5;" width="142" x="190.5" y="206.58"/><ellipse cx="205.5" cy="226.4745" fill="#ADD1B2" rx="11" ry="11" style="stroke:#181818;stroke-width:1.0;"/><path d="M208.4688,232.1152 Q207.8906,232.412 207.25,232.5527 Q206.6094,232.7089 205.9063,232.7089 Q203.4063,232.7089 202.0781,231.0683 Q200.7656,229.412 200.7656,226.287 Q200.7656,223.162 202.0781,221.5058 Q203.4063,219.8495 205.9063,219.8495 Q206.6094,219.8495 207.25,220.0058 Q207.9063,220.162 208.4688,220.4589 L208.4688,223.1777 Q207.8438,222.5995 207.25,222.3339 Q206.6563,222.0527 206.0313,222.0527 Q204.6875,222.0527 204,223.1308 Q203.3125,224.1933 203.3125,226.287 Q203.3125,228.3808 204,229.4589 Q204.6875,230.5214 206.0313,230.5214 Q206.6563,230.5214 207.25,230.2558 Q207.8438,229.9745 208.4688,229.3964 L208.4688,232.1152 Z " fill="#000000"/><text fill="#D9B8FF" font-family="Helvetica" font-size="17" lengthAdjust="spacing" textLength="100" x="224.5" y="232.3598">gcp_address</text></g><!--class gcp_instance--><g id="elem_gcp_instance"><rect codeLine="26" fill="#3D176E" height="39.7891" id="gcp_instance" rx="2.5" ry="2.5" style="stroke:#000D19;stroke-width:0.5;" width="149" x="7" y="206.58"/><ellipse cx="22" cy="226.4745" fill="#ADD1B2" rx="11" ry="11" style="stroke:#181818;stroke-width:1.0;"/><path d="M24.9688,232.1152 Q24.3906,232.412 23.75,232.5527 Q23.1094,232.7089 22.4063,232.7089 Q19.9063,232.7089 18.5781,231.0683 Q17.2656,229.412 17.2656,226.287 Q17.2656,223.162 18.5781,221.5058 Q19.9063,219.8495 22.4063,219.8495 Q23.1094,219.8495 23.75,220.0058 Q24.4063,220.162 24.9688,220.4589 L24.9688,223.1777 Q24.3438,222.5995 23.75,222.3339 Q23.1563,222.0527 22.5313,222.0527 Q21.1875,222.0527 20.5,223.1308 Q19.8125,224.1933 19.8125,226.287 Q19.8125,228.3808 20.5,229.4589 Q21.1875,230.5214 22.5313,230.5214 Q23.1563,230.5214 23.75,230.2558 Q24.3438,229.9745 24.9688,229.3964 L24.9688,232.1152 Z " fill="#000000"/><text fill="#D9B8FF" font-family="Helvetica" font-size="17" lengthAdjust="spacing" textLength="107" x="41" y="232.3598">gcp_instance</text></g><!--class gcp_instance_group--><g id="elem_gcp_instance_group"><rect codeLine="29" fill="#3D176E" height="39.7891" id="gcp_instance_group" rx="2.5" ry="2.5" style="stroke:#000D19;stroke-width:0.5;" width="206" x="438.5" y="206.58"/><ellipse cx="453.5" cy="226.4745" fill="#ADD1B2" rx="11" ry="11" style="stroke:#181818;stroke-width:1.0;"/><path d="M456.4688,232.1152 Q455.8906,232.412 455.25,232.5527 Q454.6094,232.7089 453.9063,232.7089 Q451.4063,232.7089 450.0781,231.0683 Q448.7656,229.412 448.7656,226.287 Q448.7656,223.162 450.0781,221.5058 Q451.4063,219.8495 453.9063,219.8495 Q454.6094,219.8495 455.25,220.0058 Q455.9063,220.162 456.4688,220.4589 L456.4688,223.1777 Q455.8438,222.5995 455.25,222.3339 Q454.6563,222.0527 454.0313,222.0527 Q452.6875,222.0527 452,223.1308 Q451.3125,224.1933 451.3125,226.287 Q451.3125,228.3808 452,229.4589 Q452.6875,230.5214 454.0313,230.5214 Q454.6563,230.5214 455.25,230.2558 Q455.8438,229.9745 456.4688,229.3964 L456.4688,232.1152 Z " fill="#000000"/><text fill="#D9B8FF" font-family="Helvetica" font-size="17" lengthAdjust="spacing" textLength="164" x="472.5" y="232.3598">gcp_instance_group</text></g><!--class gcp_network--><g id="elem_gcp_network"><rect codeLine="32" fill="#3D176E" height="39.7891" id="gcp_network" rx="2.5" ry="2.5" style="stroke:#000D19;stroke-width:0.5;" width="149" x="467" y="7"/><ellipse cx="482" cy="26.8945" fill="#ADD1B2" rx="11" ry="11" style="stroke:#181818;stroke-width:1.0;"/><path d="M484.9688,32.5352 Q484.3906,32.832 483.75,32.9727 Q483.1094,33.1289 482.4063,33.1289 Q479.9063,33.1289 478.5781,31.4883 Q477.2656,29.832 477.2656,26.707 Q477.2656,23.582 478.5781,21.9258 Q479.9063,20.2695 482.4063,20.2695 Q483.1094,20.2695 483.75,20.4258 Q484.4063,20.582 484.9688,20.8789 L484.9688,23.5977 Q484.3438,23.0195 483.75,22.7539 Q483.1563,22.4727 482.5313,22.4727 Q481.1875,22.4727 480.5,23.5508 Q479.8125,24.6133 479.8125,26.707 Q479.8125,28.8008 480.5,29.8789 Q481.1875,30.9414 482.5313,30.9414 Q483.1563,30.9414 483.75,30.6758 Q484.3438,30.3945 484.9688,29.8164 L484.9688,32.5352 Z " fill="#000000"/><text fill="#D9B8FF" font-family="Helvetica" font-size="17" lengthAdjust="spacing" textLength="107" x="501" y="32.7798">gcp_network</text></g><!--class gcp_network_endpoint_group--><g id="elem_gcp_network_endpoint_group"><rect codeLine="35" fill="#3D176E" height="39.7891" id="gcp_network_endpoint_group" rx="2.5" ry="2.5" style="stroke:#000D19;stroke-width:0.5;" width="289" x="680" y="206.58"/><ellipse cx="695" cy="226.4745" fill="#ADD1B2" rx="11" ry="11" style="stroke:#181818;stroke-width:1.0;"/><path d="M697.9688,232.1152 Q697.3906,232.412 696.75,232.5527 Q696.1094,232.7089 695.4063,232.7089 Q692.9063,232.7089 691.5781,231.0683 Q690.2656,229.412 690.2656,226.287 Q690.2656,223.162 691.5781,221.5058 Q692.9063,219.8495 695.4063,219.8495 Q696.1094,219.8495 696.75,220.0058 Q697.4063,220.162 697.9688,220.4589 L697.9688,223.1777 Q697.3438,222.5995 696.75,222.3339 Q696.1563,222.0527 695.5313,222.0527 Q694.1875,222.0527 693.5,223.1308 Q692.8125,224.1933 692.8125,226.287 Q692.8125,228.3808 693.5,229.4589 Q694.1875,230.5214 695.5313,230.5214 Q696.1563,230.5214 696.75,230.2558 Q697.3438,229.9745 697.9688,229.3964 L697.9688,232.1152 Z " fill="#000000"/><text fill="#D9B8FF" font-family="Helvetica" font-size="17" lengthAdjust="spacing" textLength="247" x="714" y="232.3598">gcp_network_endpoint_group</text></g><!--class gcp_packet_mirroring--><g id="elem_gcp_packet_mirroring"><rect codeLine="38" fill="#3D176E" height="39.7891" id="gcp_packet_mirroring" rx="2.5" ry="2.5" style="stroke:#000D19;stroke-width:0.5;" width="222" x="122.5" y="306.37"/><ellipse cx="137.5" cy="326.2645" fill="#ADD1B2" rx="11" ry="11" style="stroke:#181818;stroke-width:1.0;"/><path d="M140.4688,331.9052 Q139.8906,332.202 139.25,332.3427 Q138.6094,332.4989 137.9063,332.4989 Q135.4063,332.4989 134.0781,330.8583 Q132.7656,329.202 132.7656,326.077 Q132.7656,322.952 134.0781,321.2958 Q135.4063,319.6395 137.9063,319.6395 Q138.6094,319.6395 139.25,319.7958 Q139.9063,319.952 140.4688,320.2489 L140.4688,322.9677 Q139.8438,322.3895 139.25,322.1239 Q138.6563,321.8427 138.0313,321.8427 Q136.6875,321.8427 136,322.9208 Q135.3125,323.9833 135.3125,326.077 Q135.3125,328.1708 136,329.2489 Q136.6875,330.3114 138.0313,330.3114 Q138.6563,330.3114 139.25,330.0458 Q139.8438,329.7645 140.4688,329.1864 L140.4688,331.9052 Z " fill="#000000"/><text fill="#D9B8FF" font-family="Helvetica" font-size="17" lengthAdjust="spacing" textLength="180" x="156.5" y="332.1498">gcp_packet_mirroring</text></g><!--class gcp_service_attachment--><g id="elem_gcp_service_attachment"><rect codeLine="41" fill="#3D176E" height="39.7891" id="gcp_service_attachment" rx="2.5" ry="2.5" style="stroke:#000D19;stroke-width:0.5;" width="244" x="188.5" y="7"/><ellipse cx="203.5" cy="26.8945" fill="#ADD1B2" rx="11" ry="11" style="stroke:#181818;stroke-width:1.0;"/><path d="M206.4688,32.5352 Q205.8906,32.832 205.25,32.9727 Q204.6094,33.1289 203.9063,33.1289 Q201.4063,33.1289 200.0781,31.4883 Q198.7656,29.832 198.7656,26.707 Q198.7656,23.582 200.0781,21.9258 Q201.4063,20.2695 203.9063,20.2695 Q204.6094,20.2695 205.25,20.4258 Q205.9063,20.582 206.4688,20.8789 L206.4688,23.5977 Q205.8438,23.0195 205.25,22.7539 Q204.6563,22.4727 204.0313,22.4727 Q202.6875,22.4727 202,23.5508 Q201.3125,24.6133 201.3125,26.707 Q201.3125,28.8008 202,29.8789 Q202.6875,30.9414 204.0313,30.9414 Q204.6563,30.9414 205.25,30.6758 Q205.8438,30.3945 206.4688,29.8164 L206.4688,32.5352 Z " fill="#000000"/><text fill="#D9B8FF" font-family="Helvetica" font-size="17" lengthAdjust="spacing" textLength="202" x="222.5" y="32.7798">gcp_service_attachment</text></g><!--class gcp_subnetwork--><g id="elem_gcp_subnetwork"><rect codeLine="44" fill="#3D176E" height="39.7891" id="gcp_subnetwork" rx="2.5" ry="2.5" style="stroke:#000D19;stroke-width:0.5;" width="178" x="296.5" y="106.79"/><ellipse cx="311.5" cy="126.6845" fill="#ADD1B2" rx="11" ry="11" style="stroke:#181818;stroke-width:1.0;"/><path d="M314.4688,132.3252 Q313.8906,132.622 313.25,132.7627 Q312.6094,132.9189 311.9063,132.9189 Q309.4063,132.9189 308.0781,131.2783 Q306.7656,129.622 306.7656,126.497 Q306.7656,123.372 308.0781,121.7158 Q309.4063,120.0595 311.9063,120.0595 Q312.6094,120.0595 313.25,120.2158 Q313.9063,120.372 314.4688,120.6689 L314.4688,123.3877 Q313.8438,122.8095 313.25,122.5439 Q312.6563,122.2627 312.0313,122.2627 Q310.6875,122.2627 310,123.3408 Q309.3125,124.4033 309.3125,126.497 Q309.3125,128.5908 310,129.6689 Q310.6875,130.7314 312.0313,130.7314 Q312.6563,130.7314 313.25,130.4658 Q313.8438,130.1845 314.4688,129.6064 L314.4688,132.3252 Z " fill="#000000"/><text fill="#D9B8FF" font-family="Helvetica" font-size="17" lengthAdjust="spacing" textLength="136" x="330.5" y="132.5698">gcp_subnetwork</text></g><!--link gcp_instance to gcp_packet_mirroring--><g id="link_gcp_instance_gcp_packet_mirroring"><path codeLine="47" d="M111.53,246.8 C138.18,263.94 171.8547,285.6027 198.4847,302.7427 " fill="none" id="gcp_instance-to-gcp_packet_mirroring" style="stroke:#1A83AF;stroke-width:2.0;"/><polygon fill="#1A83AF" points="203.53,305.99,198.127,297.7555,199.3256,303.2839,193.7972,304.4825,203.53,305.99" style="stroke:#1A83AF;stroke-width:2.0;"/></g><!--link gcp_network to gcp_instance--><g id="link_gcp_network_gcp_instance"><path codeLine="48" d="M466.62,45.18 C413.24,58.75 340.44,79.86 279.5,106.79 C215.17,135.23 150.9287,177.0528 113.7787,202.6828 " fill="none" id="gcp_network-to-gcp_instance" style="stroke:#1A83AF;stroke-width:2.0;"/><polygon fill="#1A83AF" points="108.84,206.09,118.5195,204.2716,112.9556,203.2506,113.9766,197.6867,108.84,206.09" style="stroke:#1A83AF;stroke-width:2.0;"/></g><!--link gcp_network to gcp_instance_group--><g id="link_gcp_network_gcp_instance_group"><path codeLine="49" d="M541.5,47.2 C541.5,84.97 541.5,162.26 541.5,200.09 " fill="none" id="gcp_network-to-gcp_instance_group" style="stroke:#1A83AF;stroke-width:2.0;"/><polygon fill="#1A83AF" points="541.5,206.09,545.5,197.09,541.5,201.09,537.5,197.09,541.5,206.09" style="stroke:#1A83AF;stroke-width:2.0;"/></g><!--link gcp_network to gcp_network_endpoint_group--><g id="link_gcp_network_gcp_network_endpoint_group"><path codeLine="50" d="M569.15,47.2 C623.25,84.97 737.6199,164.8259 791.8199,202.6559 " fill="none" id="gcp_network-to-gcp_network_endpoint_group" style="stroke:#1A83AF;stroke-width:2.0;"/><polygon fill="#1A83AF" points="796.74,206.09,791.6493,197.6588,792.6399,203.2283,787.0705,204.2189,796.74,206.09" style="stroke:#1A83AF;stroke-width:2.0;"/></g><!--link gcp_network to gcp_subnetwork--><g id="link_gcp_network_gcp_subnetwork"><path codeLine="51" d="M510.68,47.22 C483.33,64.36 448.6739,86.0935 421.3439,103.2235 " fill="none" id="gcp_network-to-gcp_subnetwork" style="stroke:#1A83AF;stroke-width:2.0;"/><polygon fill="#1A83AF" points="416.26,106.41,426.0102,105.0195,420.4966,103.7546,421.7615,98.241,416.26,106.41" style="stroke:#1A83AF;stroke-width:2.0;"/></g><!--link gcp_service_attachment to gcp_subnetwork--><g id="link_gcp_service_attachment_gcp_subnetwork"><path codeLine="52" d="M325.32,47.22 C338.47,64.36 353.9182,84.5193 367.0582,101.6493 " fill="none" id="gcp_service_attachment-to-gcp_subnetwork" style="stroke:#1A83AF;stroke-width:2.0;"/><polygon fill="#1A83AF" points="370.71,106.41,368.4061,96.8344,367.6668,102.4428,362.0585,101.7035,370.71,106.41" style="stroke:#1A83AF;stroke-width:2.0;"/></g><!--link gcp_subnetwork to gcp_address--><g id="link_gcp_subnetwork_gcp_address"><path codeLine="53" d="M361,147.01 C339.26,164.15 312.3801,185.3431 290.6601,202.4831 " fill="none" id="gcp_subnetwork-to-gcp_address" style="stroke:#1A83AF;stroke-width:2.0;"/><polygon fill="#1A83AF" points="285.95,206.2,295.493,203.7647,289.8751,203.1026,290.5372,197.4846,285.95,206.2" style="stroke:#1A83AF;stroke-width:2.0;"/></g><!--link gcp_subnetwork to gcp_instance--><g id="link_gcp_subnetwork_gcp_instance"><path codeLine="54" d="M325.44,147.01 C272.23,164.12 200.6516,187.1423 147.4116,204.2723 " fill="none" id="gcp_subnetwork-to-gcp_instance" style="stroke:#1A83AF;stroke-width:2.0;"/><polygon fill="#1A83AF" points="141.7,206.11,151.4926,207.1612,146.4597,204.5786,149.0423,199.5457,141.7,206.11" style="stroke:#1A83AF;stroke-width:2.0;"/></g><!--link gcp_subnetwork to gcp_instance_group--><g id="link_gcp_subnetwork_gcp_instance_group"><path codeLine="55" d="M416.32,147.01 C443.67,164.15 478.3269,185.8722 505.6569,203.0122 " fill="none" id="gcp_subnetwork-to-gcp_instance_group" style="stroke:#1A83AF;stroke-width:2.0;"/><polygon fill="#1A83AF" points="510.74,206.2,505.2406,198.0295,506.5041,203.5435,500.9902,204.8069,510.74,206.2" style="stroke:#1A83AF;stroke-width:2.0;"/></g><!--link gcp_subnetwork to gcp_network_endpoint_group--><g id="link_gcp_subnetwork_gcp_network_endpoint_group"><path codeLine="56" d="M472.49,147.07 C549.36,164.19 655.0135,187.7254 731.8235,204.8354 " fill="none" id="gcp_subnetwork-to-gcp_network_endpoint_group" style="stroke:#1A83AF;stroke-width:2.0;"/><polygon fill="#1A83AF" points="737.68,206.14,729.765,200.2788,732.7996,205.0529,728.0256,208.0875,737.68,206.14" style="stroke:#1A83AF;stroke-width:2.0;"/></g><!--link gcp_subnetwork to gcp_packet_mirroring--><g id="link_gcp_subnetwork_gcp_packet_mirroring"><path codeLine="57" d="M383.67,146.7 C380.45,171.7 371.82,216.01 349.5,246.37 C330.46,272.27 305.4848,289.5806 280.6548,303.0406 " fill="none" id="gcp_subnetwork-to-gcp_packet_mirroring" style="stroke:#1A83AF;stroke-width:2.0;"/><polygon fill="#1A83AF" points="275.38,305.9,285.1985,305.1274,279.7757,303.5172,281.386,298.0943,275.38,305.9" style="stroke:#1A83AF;stroke-width:2.0;"/></g><!--SRC=[ZP91Ry8m38Nl_HMHE2FHeGsuJEgGq7P1qzXjcggqSMdKDgaS0sBJ_llQ0ICqjELgVxRVUqag1J0eIjgp0ee8q7Wcawhao0iM8EhTNESQsI19U3AUD9iBhQWNMF82s3FaMo0PyoRndieuKs0CkxDQJppErgWtIXpM4t9bgXOeigXvpeq9Y5166m9BZ9X5qoHfaisbWx7m9m_WO1e5u14PZKR2dpMHtbETll-9bVm2vjkXBJM18zCvyKTrggm9IwHZzDHlrVZAXP1gpUwjsjj14oh0Y_egvKBlQZhXkR7F6084JViIveuhc4r5ChaAlxJ1Nbn7nzPn6LRwiFurtvxtOvMbCiHL36tri5vRDhiAQASnQoc7e4IffQBhmsKb5YWiPFMTiKwXqJU0MrbTvaGyJelg2pl49hfGS65a-37mW-auM7mE7w_Uysm73dtQSnjrSDZDNa-bU-Riq6k9f7Vad9637lz2BtUHnIsWPQqBxqYaQynvo5y0]--></g></svg>

<svg xmlns="http://www.w3.org/2000/svg" width="976" height="352" viewBox="0 0 976 352"><rect width="142" height="39.789" x="190.5" y="206.58" fill="#3D176E" rx="2.5" ry="2.5" style="stroke:#000d19;stroke-width:.5"/><circle cx="205.5" cy="226.475" r="11" fill="#ADD1B2" style="stroke:#181818;stroke-width:1"/><path d="M208.469 232.115q-.578.297-1.219.438-.64.156-1.344.156-2.5 0-3.828-1.64-1.312-1.657-1.312-4.782t1.312-4.781q1.328-1.656 3.828-1.656.703 0 1.344.156.656.156 1.219.453v2.719q-.625-.578-1.219-.844-.594-.281-1.219-.281-1.344 0-2.031 1.078-.687 1.062-.687 3.156t.687 3.172q.688 1.062 2.031 1.062.625 0 1.219-.265.594-.281 1.219-.86z"/><text x="224.5" y="232.36" fill="#D9B8FF" font-family="Helvetica" font-size="17" textLength="100">gcp_address</text><rect width="149" height="39.789" x="7" y="206.58" fill="#3D176E" rx="2.5" ry="2.5" style="stroke:#000d19;stroke-width:.5"/><circle cx="22" cy="226.475" r="11" fill="#ADD1B2" style="stroke:#181818;stroke-width:1"/><path d="M24.969 232.115q-.578.297-1.219.438-.64.156-1.344.156-2.5 0-3.828-1.64-1.312-1.657-1.312-4.782t1.312-4.781q1.328-1.656 3.828-1.656.703 0 1.344.156.656.156 1.219.453v2.719q-.625-.578-1.219-.844-.594-.281-1.219-.281-1.343 0-2.031 1.078-.687 1.062-.687 3.156t.687 3.172q.688 1.062 2.031 1.062.625 0 1.219-.265.594-.281 1.219-.86z"/><text x="41" y="232.36" fill="#D9B8FF" font-family="Helvetica" font-size="17" textLength="107">gcp_instance</text><rect width="206" height="39.789" x="438.5" y="206.58" fill="#3D176E" rx="2.5" ry="2.5" style="stroke:#000d19;stroke-width:.5"/><circle cx="453.5" cy="226.475" r="11" fill="#ADD1B2" style="stroke:#181818;stroke-width:1"/><path d="M456.469 232.115q-.578.297-1.219.438-.64.156-1.344.156-2.5 0-3.828-1.64-1.312-1.657-1.312-4.782t1.312-4.781q1.328-1.656 3.828-1.656.703 0 1.344.156.656.156 1.219.453v2.719q-.625-.578-1.219-.844-.594-.281-1.219-.281-1.344 0-2.031 1.078-.687 1.062-.687 3.156t.687 3.172q.688 1.062 2.031 1.062.625 0 1.219-.265.594-.281 1.219-.86z"/><text x="472.5" y="232.36" fill="#D9B8FF" font-family="Helvetica" font-size="17" textLength="164">gcp_instance_group</text><rect width="149" height="39.789" x="467" y="7" fill="#3D176E" rx="2.5" ry="2.5" style="stroke:#000d19;stroke-width:.5"/><circle cx="482" cy="26.895" r="11" fill="#ADD1B2" style="stroke:#181818;stroke-width:1"/><path d="M484.969 32.535q-.578.297-1.219.438-.64.156-1.344.156-2.5 0-3.828-1.64-1.312-1.657-1.312-4.782t1.312-4.781q1.328-1.656 3.828-1.656.703 0 1.344.156.656.156 1.219.453v2.719q-.625-.578-1.219-.844-.594-.281-1.219-.281-1.344 0-2.031 1.078-.687 1.062-.687 3.156t.687 3.172q.688 1.062 2.031 1.062.625 0 1.219-.265.594-.281 1.219-.86z"/><text x="501" y="32.78" fill="#D9B8FF" font-family="Helvetica" font-size="17" textLength="107">gcp_network</text><rect width="289" height="39.789" x="680" y="206.58" fill="#3D176E" rx="2.5" ry="2.5" style="stroke:#000d19;stroke-width:.5"/><circle cx="695" cy="226.475" r="11" fill="#ADD1B2" style="stroke:#181818;stroke-width:1"/><path d="M697.969 232.115q-.578.297-1.219.438-.64.156-1.344.156-2.5 0-3.828-1.64-1.312-1.657-1.312-4.782t1.312-4.781q1.328-1.656 3.828-1.656.703 0 1.344.156.656.156 1.219.453v2.719q-.625-.578-1.219-.844-.594-.281-1.219-.281-1.343 0-2.031 1.078-.687 1.062-.687 3.156t.687 3.172q.688 1.062 2.031 1.062.625 0 1.219-.265.594-.281 1.219-.86z"/><text x="714" y="232.36" fill="#D9B8FF" font-family="Helvetica" font-size="17" textLength="247">gcp_network_endpoint_group</text><rect width="222" height="39.789" x="122.5" y="306.37" fill="#3D176E" rx="2.5" ry="2.5" style="stroke:#000d19;stroke-width:.5"/><circle cx="137.5" cy="326.264" r="11" fill="#ADD1B2" style="stroke:#181818;stroke-width:1"/><path d="M140.469 331.905q-.578.297-1.219.438-.64.156-1.344.156-2.5 0-3.828-1.64-1.312-1.657-1.312-4.782t1.312-4.781q1.328-1.656 3.828-1.656.703 0 1.344.156.656.156 1.219.453v2.719q-.625-.579-1.219-.844-.594-.281-1.219-.281-1.344 0-2.031 1.078-.687 1.062-.687 3.156t.687 3.172q.688 1.062 2.031 1.062.625 0 1.219-.265.594-.281 1.219-.86z"/><text x="156.5" y="332.15" fill="#D9B8FF" font-family="Helvetica" font-size="17" textLength="180">gcp_packet_mirroring</text><rect width="244" height="39.789" x="188.5" y="7" fill="#3D176E" rx="2.5" ry="2.5" style="stroke:#000d19;stroke-width:.5"/><circle cx="203.5" cy="26.895" r="11" fill="#ADD1B2" style="stroke:#181818;stroke-width:1"/><path d="M206.469 32.535q-.578.297-1.219.438-.64.156-1.344.156-2.5 0-3.828-1.64-1.312-1.657-1.312-4.782t1.312-4.781q1.328-1.656 3.828-1.656.703 0 1.344.156.656.156 1.219.453v2.719q-.625-.578-1.219-.844-.594-.281-1.219-.281-1.344 0-2.031 1.078-.687 1.062-.687 3.156t.687 3.172q.688 1.062 2.031 1.062.625 0 1.219-.265.594-.281 1.219-.86z"/><text x="222.5" y="32.78" fill="#D9B8FF" font-family="Helvetica" font-size="17" textLength="202">gcp_service_attachment</text><rect width="178" height="39.789" x="296.5" y="106.79" fill="#3D176E" rx="2.5" ry="2.5" style="stroke:#000d19;stroke-width:.5"/><circle cx="311.5" cy="126.684" r="11" fill="#ADD1B2" style="stroke:#181818;stroke-width:1"/><path d="M314.469 132.325q-.578.297-1.219.438-.64.156-1.344.156-2.5 0-3.828-1.64-1.312-1.657-1.312-4.782t1.312-4.781q1.328-1.656 3.828-1.656.703 0 1.344.156.656.156 1.219.453v2.719q-.625-.579-1.219-.844-.594-.281-1.219-.281-1.344 0-2.031 1.078-.687 1.062-.687 3.156t.687 3.172q.688 1.062 2.031 1.062.625 0 1.219-.265.594-.281 1.219-.86z"/><text x="330.5" y="132.57" fill="#D9B8FF" font-family="Helvetica" font-size="17" textLength="136">gcp_subnetwork</text><path fill="none" d="M111.53 246.8c26.65 17.14 60.325 38.803 86.955 55.943" style="stroke:#1a83af;stroke-width:2"/><path fill="#1A83AF" d="m203.53 305.99-5.403-8.235 1.199 5.529-5.529 1.199z" style="stroke:#1a83af;stroke-width:2"/><path fill="none" d="M466.62 45.18c-53.38 13.57-126.18 34.68-187.12 61.61-64.33 28.44-128.571 70.263-165.721 95.893" style="stroke:#1a83af;stroke-width:2"/><path fill="#1A83AF" d="m108.84 206.09 9.68-1.818-5.564-1.021 1.02-5.564z" style="stroke:#1a83af;stroke-width:2"/><path fill="none" d="M541.5 47.2v152.89" style="stroke:#1a83af;stroke-width:2"/><path fill="#1A83AF" d="m541.5 206.09 4-9-4 4-4-4z" style="stroke:#1a83af;stroke-width:2"/><path fill="none" d="M569.15 47.2c54.1 37.77 168.47 117.626 222.67 155.456" style="stroke:#1a83af;stroke-width:2"/><path fill="#1A83AF" d="m796.74 206.09-5.09-8.431.99 5.57-5.57.99z" style="stroke:#1a83af;stroke-width:2"/><path fill="none" d="M510.68 47.22c-27.35 17.14-62.006 38.874-89.336 56.004" style="stroke:#1a83af;stroke-width:2"/><path fill="#1A83AF" d="m416.26 106.41 9.75-1.39-5.513-1.265 1.264-5.514z" style="stroke:#1a83af;stroke-width:2"/><path fill="none" d="M325.32 47.22c13.15 17.14 28.598 37.3 41.738 54.43" style="stroke:#1a83af;stroke-width:2"/><path fill="#1A83AF" d="m370.71 106.41-2.304-9.576-.74 5.609-5.608-.74z" style="stroke:#1a83af;stroke-width:2"/><path fill="none" d="M361 147.01c-21.74 17.14-48.62 38.333-70.34 55.473" style="stroke:#1a83af;stroke-width:2"/><path fill="#1A83AF" d="m285.95 206.2 9.543-2.435-5.618-.662.662-5.618z" style="stroke:#1a83af;stroke-width:2"/><path fill="none" d="M325.44 147.01c-53.21 17.11-124.788 40.132-178.028 57.262" style="stroke:#1a83af;stroke-width:2"/><path fill="#1A83AF" d="m141.7 206.11 9.793 1.051-5.033-2.582 2.582-5.033z" style="stroke:#1a83af;stroke-width:2"/><path fill="none" d="M416.32 147.01c27.35 17.14 62.007 38.862 89.337 56.002" style="stroke:#1a83af;stroke-width:2"/><path fill="#1A83AF" d="m510.74 206.2-5.5-8.17 1.264 5.513-5.514 1.264z" style="stroke:#1a83af;stroke-width:2"/><path fill="none" d="M472.49 147.07c76.87 17.12 182.524 40.655 259.333 57.765" style="stroke:#1a83af;stroke-width:2"/><path fill="#1A83AF" d="m737.68 206.14-7.915-5.861 3.035 4.774-4.774 3.035z" style="stroke:#1a83af;stroke-width:2"/><path fill="none" d="M383.67 146.7c-3.22 25-11.85 69.31-34.17 99.67-19.04 25.9-44.015 43.21-68.845 56.67" style="stroke:#1a83af;stroke-width:2"/><path fill="#1A83AF" d="m275.38 305.9 9.819-.773-5.423-1.61 1.61-5.423z" style="stroke:#1a83af;stroke-width:2"/></svg>
